X: 31954
T: Pearl Wedding, The
R: reel
M: 4/4
K: Dmajor
|:D2DE DFAd|f2fe dBBd|FAAB AFAd|ceef ecAF|
D2DE DFAd|f2fe dBBd|FAAB AFAd|1 ceec d2d2:|2 ceec d2fg||
|:faag f2ed|BddB AFEF|DFAd fafd|ceef e2fg|
(3fga ag f2ed|(3Bcd dB AFEF|DFAD FAAd|1 ceec d2fg:|2 ceec d2d2||

